test_assets/luts/identity_warm_tint.cube
TITLE "Identity + warm tint (Phase 2.5 smoke test)"
LUT_3D_SIZE 2
DOMAIN_MIN 0.0 0.0 0.0
DOMAIN_MAX 1.0 1.0 1.0
0.05 0.00 0.00
1.00 0.00 0.00
0.05 1.00 0.00
1.00 1.00 0.00
0.05 0.00 0.85
1.00 0.00 0.85
0.05 1.00 0.85
1.00 1.00 0.85
